X:1
T:Khvalitye imya Gospodie
T:Сергeй Рахманинов, 1915
T:Тропарь: Днесь Спасение
T:Всенощное бдение, Op. 37, No. 13
T:Public Domain
T:Public Domain
T:Public Domain
T:Public Domain
C:Sergei Rakhmanninov
Z:Public Domain
%%score [ ( 1 2 ) ( 3 4 ) ( 5 6 ) 7 ]
L:1/8
Q:1/4=35
M:4/4
K:C
V:1 treble nm="Сопрано" snm="С."
V:2 treble 
V:3 treble nm="Альтъ" snm="А."
V:4 treble 
V:5 treble-8 nm="Теноръ" snm="Т."
V:6 treble-8 
V:7 bass nm="Басъ" snm="Б."
V:1
"^Медленно\nSlow"!p!"^Днесь                 спа–се  –  ни –е      ми– ру     бысть,          по        –            ем         Вос   –  крес–ше –  му      из\nDnes'                  spa–se   –  ni –ye     mi– ru      buit',             po        –           yem       Vos   –  kres –she –  mu     iz" (A2!<(! B!>(!c d4)!<)!!>)! | %1
!<(! c2 !tenuto!d4!>(! cd!<)!!>)! |!p! e2!>(! d2 c4!>)! |!<(! edef g2 g2!<)! | %4
!mf! [fa]2!>(! [eg][df] eg [df][ce]!>)! | %5
"^гро        –            ба                         и    На– чаль – ни  –  ку              жиз –  ни           на       –       –       –       –     ше  –  я:\ngro         –            ba                         i     Na –chal' – ni   –   ku              zhiz –  ni            na       –       –       –       –     she – ya:"!>(! d4!p! c4!>)! | %6
!p! de!<(! f2 f2 ef!<)! |!mf! !tenuto!g2!>(! f2!p! (!tenuto!ed e2-!>)! |!>(! e2) d2 c4!>)! | %9
[M:6/4]!p!"^раз–ру  –  шив                        бо                          смер– ту– ю  смерть,                          по       –        бе–ду           да  –  де\nraz –ru  –  shiv                         bo                          smer– tu–yu  smert',                           po       –        be–du          da  –  de"!<(! A2 Bc!>(! !>!d4 c4!<)!!>)! | %10
 d2!<(! de !>!f4- f2 [df][eg]!<)! | %11
[M:4/4]"^Немнога скорее\nA little faster"[Q:1/4=55]!ff! [fa]2 [eg]2 [df][ce] [df][eg] | %12
"^нам      и           ве  –  ли – ю     ми       –       –       –     лость.\nnam      i            ve  –  li   – yu    mi       –       –       –     lost'." [df][ce] [_Bd][ce]!>(! [df]2 [ce]2!>)! | %13
"^задерживая\nslowing"[Q:1/4=45] dc!mf!!>(! d6!>)! |"^Прежний темп\nFirst tempo"[Q:1/4=35]!p! x8- | %15
"^задерживая\nslowing"[Q:1/4=30]!>(! c8-!>)! |!pp! !fermata!c8 |] %17
V:2
 x8 | x8 | x8 | x2 x2 g2 fe | x2 x2 e2 x2 | x8 | x8 | x8 | x8 |[M:6/4] x12 | x12 |[M:4/4] x8 | x8 | %13
 x8 | x8 | x8 | x8 |] %17
V:3
!p!!<(!!>(! A8!<)!!>)! |!<(! A2 !tenuto!A4!>(! EF!<)!!>)! |!p! G2!>(! AB A4!>)! | %3
 z2"^по  –     ем      Вос    –  крес–ше –  му      из\npo  –   yem     Vos    –  kres –she –  mu     iz"!<(! GA _BA !tenuto!B2!<)! | %4
!mf! !tenuto![Ac]2!>(! !tenuto![Ac]2 !tenuto![Ac]2 !tenuto![Ac]2!>)! | %5
"^гро        –            ба                         и    На– чаль – ни  –  ку              жиз –  ни           на       –       –       –       –     ше  –  я:\ngro         –            ba                         i     Na –chal' – ni   –   ku              zhiz –  ni            na       –       –       –       –     she – ya:"!>(! cBAB A4!>)! | %6
!p! G2!<(! A2 _B2 GA!<)! |!mf!!>(! !tenuto!_B2 A2!p! (!tenuto!G3 F!>)! |!>(! GE) F2 E4!>)! | %9
[M:6/4]!p!!<(! D2 DE"^раз     –      ру    –  шив    бо         смер-ту-ю           смерть,             по          –        –      бе   –  ду       да – де\nraz      –      ru    –  shiv     bo         smer-tu-yu          smert',              po          –        –      be   –  du      da – de"!<(!!>(! (!>!F3!>(! G) (EF!<(! G2)!<)!!<)!!>)!!>)!!<)! | %10
 A2!<(! FG!<(! (A2!f!!>(! _B2 c2)!<(! A=B!<)!!<)!!>)!!<)! |[M:4/4]!ff! c3 _B/A/ G2 A>c | %12
"^нам           и       ве – ли – ю                                              ми       –       –       –        –        –        –       –   лость.\nnam           i       ve –  li  – yu                                              mi       –       –       –         –        –        –       –    lost'." _B3 A/G/!>(! FG A2!>)! | %13
!mf! (F3!>(! G FEDE)!>)! |!p! (FEFG FEDE | F2!>(! E4 D2)!>)! |!pp! !fermata!E8 |] %17
V:4
 x8 | x8 | x8 | x8 | x8 | A4 A4 | x8 | x8 | x8 |[M:6/4] z4 A,B,/C/!f! D2 CD ED/E/ | %10
 FE D2 (DE/F/ G2) F>G AB |[M:4/4] x8 | x8 | x8 | x8 | x8 | x8 |] %17
V:5
!p!"^Днесь                 спа–се  –  ни –е      ми– ру   бысть, по  –  ем                                    Вос   –  крес–ше –  му      из\nDnes'                  spa–se   –  ni –ye     mi– ru    buit',    po  – yem                                  Vos   –  kres –she –  mu     iz"!<(! (e4!>(! d4)!<)!!>)! | %1
!<(! e2 !tenuto!d4!>(! ed!<)!!>)! |!p! c2!>(! d2 e2!<(! ef!>)!!<)! |!mf! g6!<(! g2!<)! | %4
!mf! f2!>(! e[df] e2 d[ce]!>)! | %5
"^гро        –            ба                         и    На– чаль – ни  –  ку              жиз –  ни           на       –       –       –       –     ше  –  я:\ngro         –            ba                         i     Na –chal' – ni   –   ku              zhiz –  ni            na       –       –       –       –     she – ya:"!>(! f2 d2 e4!>)! | %6
!p! d2 d2!<(! d2 ^c2!<)! |!>(! !tenuto!^c2 d=c!p! (_B3 A!>)! |!>(! _BG) A2 G4!>)! | %9
[M:6/4]!p!"^раз–ру  –  шив                        бо                          смер– ту– ю  смерть,                          по       –        бе–ду           да  –  де\nraz –ru  –  shiv                         bo                          smer– tu–yu  smert',                           po       –        be–du          da  –  de"!<(! A2 A2!>(! !>!d4 c4!<)!!>)! | %10
 d2!<(! de !>!f4- f2!<(! fg!<)!!<)! |[M:4/4]!ff! [fa]2 [eg]2 [df][ce] [df][eg] | %12
"^нам     и            ве – ли –  ю                                              ми       –       –       –        –        –        –       –   лость.\nnam     i             ve –  li  – yu                                              mi       –       –       –         –        –        –       –    lost'." [df][ce] [_Bd][ce] [df]2 [ce]2 | %13
!mf!!>(! (d6 c)_B!>)! |!p! c8- | c8 |!pp! !fermata!c8 |] %17
V:6
 x8 | x8 | x8 | g6 fe | f2 x2 x4 | d4 e4 | x8 | x8 | x8 |[M:6/4] F2 FG (A3 _B) G4 | %10
 A2 AA (A2!<(! _B2 c2) de |[M:4/4] x8 | x8!<)! | A6 c_B | (A2 _B2 A2 G2 | A3 _B AG F2) | G8 |] %17
V:7
!p!"^Днесь                 спа–се  –  ни –е      ми– ру     бысть,                                                  по     –     ем                          Вос  –\nDnes'                  spa–se   –  ni –ye     mi– ru      buit',                                                     po     –   yem                         Vos  –"!<(! (A,4!>(! F,4)!<)!!>)! | %1
!<(! A,2 !tenuto!F,4!>(! A,A,!<)!!>)! |!p! E,2!>(! F,G, A,4-!>)! | A,6!<(! A,2!<)! | %4
!mf!!>(! A,6 A,2!>)! | %5
"^–  крес –  ше  –  му        На      –    чаль   – ни   –  ку                          жиз –  ни           на       –       –       –       –       ше  –  я:\n–  kres  – she  –  mu       Na      –    chal'   –  ni    –  ku                          zhiz –  ni            na       –       –       –       –       she – ya:" A,2 F,G, A,2!<(! G,A,!<)! | %6
!mf! _B,2 A,2 (G,3 F,) |!>(! !tenuto!E,2 F,2!p! !tenuto!D,4-!>)! |!>(! D,2 G,,2 C,4!>)! | %9
[M:6/4] z4"^раз     –      ру    –  шив   бо         смер-ту-ю          смерть,            по          –        –         бе  –  ду     да  –  де\nraz      –      ru    –  shiv    bo        smer-tu-yu         smert',              po          –        –         be  –  du    da  –  de"!<(! A,,B,,/C,/!f!!>(! !>!D,2 C,D,!<(! E,D,/E,/!<)!!>)!!<)! | %10
 F,E, D,2!<(! (D,E,/F,/!f!!>(! G,2) (F,>G,!<(! A,B,)!<)!!>)!!<)! |[M:4/4]!ff! C3 _B,/A,/ G,2 A,>C | %12
"^нам           и       ве – ли – ю                                              ми       –       –       –        –        –        –       –   лость.\nnam           i       ve –  li  – yu                                              mi       –       –       –         –        –        –       –    lost'." _B,3 A,/G,/!>(! F,G, A,2!>)! | %13
!mf! (D,2!>(! E,2 F,2 G,2)!>)! |!p! C,8- |!>(! C,8!>)! |!pp! !fermata![C,,C,]8 |] %17

